packages/assets/files/fram/colors/illustrations/token/travelcard/dark/Travelcard.svg

<svg xmlns="http://www.w3.org/2000/svg" id="Layer_1" x="0" y="0" style="enable-background:new 0 0 119 86" version="1.1" viewBox="0 0 119 86">
  <path d="M12.8 4h94c4.4 0 8 3.6 8 8v62c0 4.4-3.6 8-8 8h-94c-4.4 0-8-3.6-8-8V12c0-4.4 3.5-8 8-8z" fill="none" stroke="#cde9e3" stroke-miterlimit="10" />
  <path d="M33.2 20.5h69c.8 0 1.5.7 1.5 1.5v7c0 .8-.7 1.5-1.5 1.5h-69c-.8 0-1.5-.7-1.5-1.5v-7c.1-.8.7-1.5 1.5-1.5z" fill="none" stroke="#cde9e3" stroke-miterlimit="10" />
</svg>

<svg width="119" height="86" viewBox="0 0 119 86" fill="none" xmlns="http://www.w3.org/2000/svg">
<path d="M12.8 4H106.8C111.2 4 114.8 7.6 114.8 12V74C114.8 78.4 111.2 82 106.8 82H12.8C8.40005 82 4.80005 78.4 4.80005 74V12C4.80005 7.6 8.30005 4 12.8 4Z" fill="#75B8C4"/>
<path d="M33.2 20.5H102.2C103 20.5 103.7 21.2 103.7 22V29C103.7 29.8 103 30.5 102.2 30.5H33.2C32.4 30.5 31.7 29.8 31.7 29V22C31.8 21.2 32.4 20.5 33.2 20.5Z" fill="#D4E9EC"/>
</svg>
